src/lib/packages/icons/src/assets/line/google-play.svg

<svg width="24" height="24" viewBox="0 0 24 24" fill="none" xmlns="http://www.w3.org/2000/svg">
<path d="M20.21 9.59979L7.64001 2.6998C7.22001 2.4298 6.67999 2.27979 6.10999 2.27979C4.83999 2.27979 3.71 3.0898 3.38 4.2298C3.38 4.2398 3.38 4.25978 3.37 4.26978C3.37 4.28978 3.34998 4.31978 3.34998 4.33978C3.28998 4.58978 3.28003 4.85977 3.28003 5.04977V19.0698C3.28003 19.3098 3.27999 19.5498 3.35999 19.7798C3.35999 19.7898 3.36 19.7998 3.37 19.8098C3.37 19.8098 3.37 19.8198 3.37 19.8298C3.75 20.9798 4.85998 21.7798 6.09998 21.7798C6.64998 21.7798 7.15003 21.6398 7.53003 21.3898L20.24 14.4598C21.17 13.9798 21.76 13.0198 21.76 11.9698C21.69 10.9698 21.09 10.0598 20.2 9.58978L20.21 9.59979ZM6.10999 3.77979C6.38999 3.77979 6.65 3.8498 6.87 3.9798L14.77 8.31979L11.99 10.9698L4.96997 4.32977C5.20997 3.99977 5.64999 3.77979 6.10999 3.77979ZM4.77002 17.8498V6.20978L10.9 12.0098L4.77002 17.8498ZM6.77002 20.1098C6.59002 20.2298 6.36999 20.2898 6.10999 20.2898C5.65999 20.2898 5.23999 20.0698 4.98999 19.7198L12 13.0398L14.83 15.7198L6.78003 20.1098H6.77002ZM19.54 13.1498L16.21 14.9698L13.08 12.0098L16.14 9.08978L19.48 10.9298C19.48 10.9298 19.48 10.9298 19.49 10.9298C19.92 11.1598 20.23 11.6098 20.26 12.0398C20.26 12.4798 19.97 12.9198 19.53 13.1498H19.54Z" fill="currentColor"/>
</svg>

<svg xmlns="http://www.w3.org/2000/svg" width="24" height="24" fill="none"><path fill="currentColor" d="M20.21 9.6 7.64 2.7c-.42-.27-.96-.42-1.53-.42-1.27 0-2.4.81-2.73 1.95 0 .01 0 .03-.01.04 0 .02-.02.05-.02.07-.06.25-.07.52-.07.71v14.02c0 .24 0 .48.08.71 0 .01 0 .02.01.03v.02c.38 1.15 1.49 1.95 2.73 1.95.55 0 1.05-.14 1.43-.39l12.71-6.93c.93-.48 1.52-1.44 1.52-2.49-.07-1-.67-1.91-1.56-2.38l.01.01ZM6.11 3.78c.28 0 .54.07.76.2l7.9 4.34-2.78 2.65-7.02-6.64c.24-.33.68-.55 1.14-.55ZM4.77 17.85V6.21l6.13 5.8-6.13 5.84Zm2 2.26c-.18.12-.4.18-.66.18-.45 0-.87-.22-1.12-.57L12 13.04l2.83 2.68-8.05 4.39h-.01Zm12.77-6.96-3.33 1.82-3.13-2.96 3.06-2.92 3.34 1.84h.01c.43.23.74.68.77 1.11 0 .44-.29.88-.73 1.11h.01Z"/></svg>
